X:1
T:Title
%%score { 1 | 2 }
L:1/8
Q:1/4=100
M:4/4
K:Bb
V:1 treble nm="Grand Piano"
V:2 bass 
V:1
 [DF]2 [DF]2 [DG]>[DF] [DB]>[Ec] | [Fd]4 [DB]2 z2 | G2 B2 F>[FB] [EA]>[DB] | c6 z2 | %4
w: Victor~H.~Benke * * * * *||||
 F2 [FB]2 [FA]>[FB] [Fc]>[Fd] | [Gc]4 [GB]2 z2 | A2 B2 c>G A>F | [DB]6 z2 | %8
w: ||||
 [Fd]2 [Fd]2 [Fd]>[Fc] [FB]>[Fc] | [Fd]4 [DFB]2 z2 | [CGc]2 [Gd]2 [Ge]>[EG] [=Ec]>[CEB] | %11
w: |||
 [CFA]6 z2 | [DFB]2 [Fd]2 [Ff]>[Fd] [Fc]>[FB] | [Gc]4 G2 z2 | A2 e2 d>c G>A | [DB]6 z2 |] %16
w: |||||
V:2
 [B,,B,]2 [B,,B,]2 [B,,F,]>[B,,F,] [B,,B,]>[B,,A,] | [B,,B,]4 [B,,B,]2 z2 | %2
 [E,B,E]2 [E,G,E]2 [D,B,]>[D,B,] [C,F,]>[B,,B,] | [F,A,F]6 z2 | %4
 [D,B,]2 [D,D]2 [E,C]>[D,B,] [C,A,]>[B,,B,] | [E,B,]4 [=E,C]2 z2 | %6
 [F,CF]2 [F,DF]2 [F,EF]>[F,B,E] [F,CE]>[F,A,E] | [B,,B,]6 z2 | %8
 [B,,B,]2 [D,B,]2 [F,B,]>[E,A,] [D,B,]>[C,A,] | [B,,B,]4 B,,2 z2 | %10
 E,2 [D,=B,]2 [C,C]>[C,C] [C,G,]>C, | F,6 z2 | B,,2 [B,,B,]2 [D,B,]>[D,B,] [D,B,]>[D,B,] | %13
 [E,B,]4 [E,CE]2 z2 | [F,CE]2 [F,B,G]2 [F,A,F]>[F,A,E] [F,CE]>[F,CE] | [B,,B,]6 z2 |] %16

